img/social-icons/snapchat.svg

<svg width="60" height="60" viewBox="0 0 60 60" fill="none" xmlns="http://www.w3.org/2000/svg">
<path fill-rule="evenodd" clip-rule="evenodd" d="M0 30C0 13.4315 13.4315 0 30 0C46.5685 0 60 13.4315 60 30C60 46.5685 46.5685 60 30 60C13.4315 60 0 46.5685 0 30Z" fill="#FFE400"/>
<path fill-rule="evenodd" clip-rule="evenodd" d="M30.3077 15H30.3063C30.2787 15 30.2527 15 30.228 15.0003C30.0309 15.0023 29.707 15.0055 29.6779 15.0058C28.9675 15.0058 27.5462 15.1058 26.0195 15.7778C25.1466 16.1617 24.3614 16.6808 23.6858 17.3207C22.8804 18.0832 22.2243 19.0233 21.736 20.1153C21.0209 21.7141 21.1906 24.4072 21.327 26.5714L21.3275 26.5748C21.3421 26.8066 21.3574 27.0486 21.3714 27.2845C21.2665 27.3325 21.0964 27.3832 20.8457 27.3832C20.4424 27.3832 19.9627 27.2546 19.4204 27.0013C19.2609 26.9272 19.0788 26.8897 18.8778 26.8897C18.555 26.8897 18.2146 26.9845 17.9194 27.1575C17.548 27.375 17.308 27.6824 17.2428 28.0231C17.1998 28.2485 17.2019 28.6941 17.6982 29.1459C17.9712 29.3946 18.3723 29.624 18.8899 29.828C19.0258 29.8813 19.187 29.9322 19.3577 29.9862C19.9503 30.174 20.8471 30.4577 21.0809 31.0065C21.1994 31.2848 21.1484 31.6509 20.9298 32.0935C20.924 32.1055 20.9183 32.1174 20.9131 32.1298C20.8584 32.257 20.3486 33.4085 19.3028 34.623C18.7085 35.3136 18.0539 35.8908 17.3583 36.3389C16.5093 36.8861 15.5906 37.2438 14.628 37.4019C14.25 37.4638 13.9801 37.7996 14.0012 38.1812C14.0076 38.2911 14.0335 38.4008 14.0784 38.5069C14.0787 38.5075 14.0791 38.5082 14.0794 38.5088C14.2323 38.8652 14.5866 39.1681 15.1627 39.4351C15.8667 39.7612 16.9196 40.0355 18.2918 40.25C18.3612 40.3815 18.4332 40.7119 18.483 40.9382C18.5352 41.1786 18.5896 41.4259 18.6671 41.6885C18.7508 41.973 18.9678 42.313 19.5253 42.313C19.7366 42.313 19.9796 42.2656 20.261 42.2112C20.6731 42.1305 21.2366 42.0206 21.9399 42.0206C22.3299 42.0206 22.734 42.0548 23.1407 42.1222C23.9248 42.2523 24.6008 42.7285 25.3829 43.2798C26.5277 44.0867 27.8234 45 29.8032 45C29.8572 45 29.9114 44.9983 29.9648 44.9945C30.0303 44.9976 30.1114 45 30.197 45C32.1773 45 33.4728 44.0864 34.6163 43.2802L34.6181 43.2785C35.4004 42.7278 36.0756 42.2523 36.8594 42.1222C37.2661 42.0549 37.6701 42.0206 38.0602 42.0206C38.7321 42.0206 39.2641 42.106 39.7391 42.1983C40.0491 42.2592 40.29 42.2885 40.4748 42.2885L40.4929 42.2888H40.5117C40.9194 42.2888 41.2191 42.0656 41.3334 41.6751C41.4094 41.418 41.4636 41.1766 41.5171 40.9321C41.5637 40.72 41.6382 40.3802 41.7075 40.2473C43.0807 40.0323 44.1331 39.7586 44.8372 39.4327C45.412 39.1668 45.7659 38.8643 45.9197 38.5094C45.9658 38.4029 45.9927 38.2926 45.9988 38.1803C46.0204 37.7994 45.7501 37.4629 45.3718 37.4011C41.0939 36.6981 39.1667 32.3152 39.087 32.129C39.0819 32.1168 39.0761 32.1046 39.07 32.0928C38.8513 31.6501 38.8008 31.2844 38.9194 31.0056C39.1528 30.4573 40.049 30.1736 40.642 29.9859C40.8136 29.932 40.9754 29.8807 41.1102 29.8276C41.6939 29.5978 42.1111 29.3484 42.3864 29.0652C42.7151 28.7275 42.7791 28.4041 42.7751 28.1924C42.7651 27.6802 42.3724 27.2251 41.7478 27.0022C41.5368 26.9153 41.2963 26.8694 41.0513 26.8694C40.8845 26.8694 40.6376 26.8922 40.4038 27.001C39.9033 27.2345 39.455 27.3622 39.0701 27.3804C38.8654 27.37 38.7219 27.3258 38.6289 27.2836C38.6406 27.0838 38.6535 26.8785 38.6669 26.6645L38.6725 26.5729C38.8095 24.4073 38.9799 21.7122 38.2644 20.1121C37.7741 19.0163 37.1156 18.0738 36.307 17.3097C35.6288 16.6693 34.8409 16.1503 33.9649 15.7666C32.4403 15.0996 31.0191 15 30.3077 15Z" fill="white"/>
</svg>

<svg xmlns="http://www.w3.org/2000/svg" width="60" height="60" fill="none" viewBox="0 0 60 60"><path fill="#FFE400" fill-rule="evenodd" d="M0 30C0 13.431 13.431 0 30 0c16.569 0 30 13.431 30 30 0 16.569-13.431 30-30 30C13.431 60 0 46.569 0 30z" clip-rule="evenodd"/><path fill="#fff" fill-rule="evenodd" d="M30.308 15h-.08l-.55.006c-.71 0-2.132.1-3.659.772a8.153 8.153 0 0 0-2.333 1.543c-.806.762-1.462 1.702-1.95 2.794-.715 1.6-.545 4.292-.409 6.456v.004l.044.71a1.257 1.257 0 0 1-.525.098c-.404 0-.883-.128-1.426-.382a1.277 1.277 0 0 0-.542-.111c-.323 0-.663.095-.959.267-.371.218-.611.525-.676.866-.043.226-.041.671.455 1.123.273.249.674.478 1.192.682.136.053.297.104.468.158.592.188 1.49.472 1.723 1.02.118.279.067.645-.151 1.087a.747.747 0 0 0-.017.037c-.055.127-.564 1.278-1.61 2.493a9.05 9.05 0 0 1-1.945 1.716 7.162 7.162 0 0 1-2.73 1.063.748.748 0 0 0-.627.78c.007.11.033.219.077.325l.001.002c.153.356.508.66 1.084.926.704.326 1.757.6 3.129.815.07.132.141.462.191.688.052.24.107.488.184.75.084.285.3.625.858.625.212 0 .455-.047.736-.102.412-.08.976-.19 1.679-.19.39 0 .794.034 1.2.101.785.13 1.46.606 2.243 1.158 1.145.807 2.44 1.72 4.42 1.72.054 0 .108-.002.162-.005.065.003.146.005.232.005 1.98 0 3.276-.914 4.42-1.72l.001-.002c.782-.55 1.458-1.026 2.241-1.156.407-.067.811-.101 1.201-.101.672 0 1.204.085 1.68.177.31.061.55.09.735.09h.037c.407 0 .707-.222.821-.613.076-.257.13-.498.184-.743.047-.212.121-.552.19-.685 1.374-.215 2.426-.488 3.13-.814.575-.266.929-.569 1.083-.924a.956.956 0 0 0 .079-.329.748.748 0 0 0-.627-.779c-4.278-.703-6.205-5.086-6.285-5.272a.496.496 0 0 0-.017-.036c-.219-.443-.27-.809-.15-1.087.233-.549 1.129-.832 1.722-1.02.172-.054.333-.105.468-.158.584-.23 1.001-.48 1.276-.763.33-.338.393-.66.39-.873-.01-.512-.404-.967-1.028-1.19a1.844 1.844 0 0 0-.697-.133c-.166 0-.413.023-.647.132-.5.233-.949.361-1.334.38a1.212 1.212 0 0 1-.441-.097l.038-.62.005-.091c.138-2.166.308-4.86-.408-6.46-.49-1.097-1.148-2.04-1.957-2.803a8.174 8.174 0 0 0-2.342-1.543A9.34 9.34 0 0 0 30.308 15z" clip-rule="evenodd"/></svg>
